images/icons/present.svg

<svg width="64" height="76" viewBox="0 0 64 76" fill="none" xmlns="http://www.w3.org/2000/svg">
<path d="M61.1 22.5H61H36.3C50.1 15.6 51.2 11.2 50.7 8.79997C49.5 4.79997 45 1.79997 40.7 3.39997C35.1 5.49997 33.6 13.8 32.1 19.8C30.1 13.7 28.3 5.99997 23.9 2.09997C22.6 0.999966 20.8 -0.200034 18.1 0.0999663C14.1 0.499966 8.3 5.49997 10.6 11.1C12.9 16.5 20.3 19.9 25.2 22.6H3.2H2.9C1.3 22.6 0 23.9 0 25.5V36.8C0 38.4 1.3 39.7 2.9 39.7H3.2V73V75.4V76H61V75.5V73V39.6H61.1C62.7 39.6 64 38.3 64 36.7V25.4C64 23.8 62.7 22.5 61.1 22.5ZM42.4 5.89997C44.5 5.59997 47.4 7.19997 47.7 9.09997C48.1 11.9 44.3 14.4 42.6 15.5C40.1 17.2 37.7 18.1 35.3 19.6C36.2 15.9 37.8 6.59997 42.4 5.89997ZM19.5 15.9C17.3 14.4 13 11.5 13.1 8.09997C13.2 4.49997 18.8 1.49997 21.9 4.19997C25.8 7.59997 27.6 15.3 29 20.8C25.8 19.3 22.7 18 19.5 15.9ZM25.5 73H6.1V39.6H25.5V73ZM25.5 36.5H3V25.5H25.5V36.5ZM35.7 36.5V39.5V73H28.5V39.6V36.6V25.6H35.7V36.5ZM58 73H38.6V39.6H58V73ZM60.9 36.5H38.6V25.5H60.9V36.5Z" fill="#81B3D2"/>
</svg>

<svg width="64" height="76" fill="none" xmlns="http://www.w3.org/2000/svg"><path d="M61.1 22.5H36.3c13.8-6.9 14.9-11.3 14.4-13.7-1.2-4-5.7-7-10-5.4-5.6 2.1-7.1 10.4-8.6 16.4-2-6.1-3.8-13.8-8.2-17.7a7.3 7.3 0 0 0-5.8-2c-4 .4-9.8 5.4-7.5 11 2.3 5.4 9.7 8.8 14.6 11.5H2.9A2.9 2.9 0 0 0 0 25.5v11.3c0 1.6 1.3 2.9 2.9 2.9h.3V76H61V39.6h.1c1.6 0 2.9-1.3 2.9-2.9V25.4c0-1.6-1.3-2.9-2.9-2.9ZM42.4 5.9c2.1-.3 5 1.3 5.3 3.2.4 2.8-3.4 5.3-5.1 6.4-2.5 1.7-4.9 2.6-7.3 4.1.9-3.7 2.5-13 7.1-13.7Zm-22.9 10c-2.2-1.5-6.5-4.4-6.4-7.8.1-3.6 5.7-6.6 8.8-3.9 3.9 3.4 5.7 11.1 7.1 16.6-3.2-1.5-6.3-2.8-9.5-4.9Zm6 57.1H6.1V39.6h19.4V73Zm0-36.5H3v-11h22.5v11Zm10.2 0V73h-7.2V25.6h7.2v10.9ZM58 73H38.6V39.6H58V73Zm2.9-36.5H38.6v-11h22.3v11Z" fill="#81B3D2"/></svg>
